icons/Ticket-Star.svg

<svg width="24" height="24" viewBox="0 0 24 24" fill="none" xmlns="http://www.w3.org/2000/svg">
<g id="Ticket-Star">
<path id="Vector" d="M3 10V8C3 7.20435 3.31607 6.44129 3.87868 5.87868C4.44129 5.31607 5.20435 5 6 5H18C18.7956 5 19.5587 5.31607 20.1213 5.87868C20.6839 6.44129 21 7.20435 21 8V10H19C18.4696 10 17.9609 10.2107 17.5858 10.5858C17.2107 10.9609 17 11.4696 17 12C17 12.5304 17.2107 13.0391 17.5858 13.4142C17.9609 13.7893 18.4696 14 19 14H21V16C21 16.7956 20.6839 17.5587 20.1213 18.1213C19.5587 18.6839 18.7956 19 18 19H6C5.20435 19 4.44129 18.6839 3.87868 18.1213C3.31607 17.5587 3 16.7956 3 16V14H5C5.53043 14 6.03914 13.7893 6.41421 13.4142C6.78929 13.0391 7 12.5304 7 12C7 11.4696 6.78929 10.9609 6.41421 10.5858C6.03914 10.2107 5.53043 10 5 10H3Z" stroke="#00153F" stroke-width="1.5" stroke-linecap="round" stroke-linejoin="round"/>
<path id="Vector_2" d="M12.43 9.82001L12.85 10.66C12.8839 10.7297 12.9345 10.7898 12.9974 10.8352C13.0602 10.8806 13.1332 10.9097 13.21 10.92L14.13 11.06C14.2192 11.0721 14.3032 11.109 14.3725 11.1666C14.4417 11.2241 14.4934 11.3 14.5215 11.3855C14.5497 11.4711 14.5532 11.5628 14.5317 11.6502C14.5102 11.7376 14.4646 11.8173 14.4 11.88L13.74 12.53C13.6831 12.5847 13.6406 12.6525 13.6162 12.7275C13.5918 12.8025 13.5862 12.8823 13.6 12.96L13.75 13.88C13.7665 13.9691 13.7575 14.061 13.724 14.1451C13.6906 14.2293 13.6339 14.3023 13.5607 14.3556C13.4875 14.4089 13.4007 14.4405 13.3103 14.4466C13.22 14.4527 13.1297 14.433 13.05 14.39L12.23 14C12.1597 13.9606 12.0805 13.9399 12 13.9399C11.9194 13.9399 11.8402 13.9606 11.77 14L10.95 14.43C10.8703 14.473 10.78 14.4927 10.6897 14.4866C10.5993 14.4805 10.5125 14.4489 10.4393 14.3956C10.3661 14.3423 10.3094 14.2693 10.276 14.1851C10.2425 14.101 10.2335 14.0091 10.25 13.92L10.4 13C10.4138 12.9223 10.4082 12.8425 10.3838 12.7675C10.3594 12.6925 10.3169 12.6247 10.26 12.57L9.6 11.92C9.53541 11.8573 9.48976 11.7776 9.46828 11.6902C9.44679 11.6028 9.45033 11.5111 9.47849 11.4255C9.50664 11.34 9.55829 11.2641 9.62752 11.2066C9.69675 11.149 9.78078 11.1121 9.87 11.1L10.79 10.96C10.8668 10.9497 10.9398 10.9206 11.0026 10.8752C11.0654 10.8298 11.1161 10.7697 11.15 10.7L11.57 9.86001C11.6059 9.77792 11.664 9.7075 11.7378 9.65672C11.8116 9.60594 11.8981 9.57682 11.9876 9.57266C12.077 9.5685 12.1659 9.58946 12.2441 9.63317C12.3223 9.67688 12.3867 9.7416 12.43 9.82001Z" stroke="#00153F" stroke-width="1.5" stroke-miterlimit="10"/>
</g>
</svg>

<svg xmlns="http://www.w3.org/2000/svg" fill="none" viewBox="0 0 24 24"><g stroke="currentColor" stroke-width="1.5"><path stroke-linecap="round" stroke-linejoin="round" d="M3 10V8a3 3 0 0 1 3-3h12a3 3 0 0 1 3 3v2h-2a2 2 0 0 0 0 4h2v2a3 3 0 0 1-3 3H6a3 3 0 0 1-3-3v-2h2a2 2 0 1 0 0-4H3Z"/><path stroke-miterlimit="10" d="m12.43 9.82.42.84a.469.469 0 0 0 .36.26l.92.14a.48.48 0 0 1 .27.82l-.66.65a.48.48 0 0 0-.14.43l.15.92a.48.48 0 0 1-.7.51l-.82-.39a.47.47 0 0 0-.46 0l-.82.43a.48.48 0 0 1-.7-.51l.15-.92a.48.48 0 0 0-.14-.43l-.66-.65a.48.48 0 0 1 .27-.82l.92-.14a.47.47 0 0 0 .36-.26l.42-.84a.48.48 0 0 1 .86-.04Z"/></g></svg>
